public/assets/images/icons/white/news.svg

<svg xmlns="http://www.w3.org/2000/svg" viewBox="0 0 54 54"><path d="M3 6v42h12a5.34 5.34 0 0 0 .87-.06l34-9A1.52 1.52 0 0 0 51 37.31V6zm16.85 37.79 17.62-15.28 9 8.24zM48 34.12l-10.47-9.64L34.64 27H9v4h21l-3.45 3H9v4h13l-8 7H6V9h42z" fill="#fff"/><path d="M9 12h11v11H9zm15 0h21v4H24zm0 7h21v4H24z" fill="#fff"/></svg>

<svg xmlns="http://www.w3.org/2000/svg" viewBox="0 0 54 54"><defs><style>.a{fill:#ffffff;}</style></defs><path class="a" d="M3,6V48H15a5.34,5.34,0,0,0,.87-.06l34-9A1.52,1.52,0,0,0,51,37.31L51,6ZM19.85,43.79,37.47,28.51l9,8.24ZM48,34.12,37.53,24.48,34.64,27H9v4H30l-3.45,3H9v4H22l-8,7H6V9H48Z"/><rect class="a" x="9" y="12" width="11" height="11"/><rect class="a" x="24" y="12" width="21" height="4"/><rect class="a" x="24" y="19" width="21" height="4"/></svg>
